X: 30744
T: LEFT HAND REEL
C:
%R: reel
B: Elias Howe "The Musician's Companion" Part 3 1844 p.74 #4
S: http://imslp.org/wiki/The_Musician's_Companion_(Howe,_Elias)
Z: 2015 John Chambers <jc:trillian.mit.edu>
M: 2/4
L: 1/16
K: D
% - - - - - - - - - - - - - - - - - - - - - - - - -
|:\
dcdA (3(Bcd) AF | DFAF GEEc |\
dcdA BdAF | dfeg fdd2 ::\
d>fa>f b>ga>f | dfaf geef |
dfaf bgaf | gfeg fdd2 |\
dfaf bgaf | dfaf geeg |\
fdec d2AF | DFBd fdd2 :|
% - - - - - - - - - - - - - - - - - - - - - - - - -
